Origami/16x16/apps/makemkv.svg

<svg width="16" height="16" version="1" xmlns="http://www.w3.org/2000/svg">
 <path d="m8 4a4 4 0 0 0 -4 4 4 4 0 0 0 4 4 4 4 0 0 0 4 -4 4 4 0 0 0 -4 -4zm0 2c1.1045 0 2 0.8955 2 2s-0.8955 2-2 2-2-0.8955-2-2c0-1.10455 0.89545-2 2-2z" style="fill:#848484"/>
 <path d="m8 0c-4.432 0-8 3.568-8 8s3.568 8 8 8 8-3.568 8-8-3.568-8-8-8zm0 5a3 3 0 0 1 3 3 3 3 0 0 1 -3 3 3 3 0 0 1 -3 -3 3 3 0 0 1 3 -3z" style="fill:#cccccc"/>
 <rect x="2" y="10" width="12" height="6" rx=".857" ry=".857" style="fill:#64cd4a"/>
 <path d="m5.4961359 14.49299v-2.985766m-1.9922717 0 0.9961359 1.492882 0.9961358-1.492882m-1.9922717 2.985766v-2.985766" style="fill:none;stroke-linecap:round;stroke-linejoin:round;stroke-width:.99978042;stroke:#ffffff"/>
 <path d="m9.4945513 14.492636-1.9891027-1.866088m1.9891027-1.119654-1.9891027 1.866089m0 1.119653v-2.985742" style="fill:none;stroke-linecap:round;stroke-width:1.0004782;stroke:#ffffff"/>
 <path d="m12.497818 11.506859-0.997818 2.993353-0.997818-2.993353" style="fill:none;stroke-linecap:round;stroke-linejoin:round;stroke-width:.99979293;stroke:#ffffff"/>
</svg>

<svg xmlns="http://www.w3.org/2000/svg" width="16" height="16" version="1">
 <path style="fill:#848484" d="M 8 4 A 4 4 0 0 0 4 8 A 4 4 0 0 0 8 12 A 4 4 0 0 0 12 8 A 4 4 0 0 0 8 4 z M 8 6 C 9.1045 6 10 6.8955 10 8 C 10 9.1045 9.1045 10 8 10 C 6.8955 10 6 9.1045 6 8 C 6 6.89545 6.89545 6 8 6 z"/>
 <path style="fill:#cccccc" d="M 8 0 C 3.568 0 0 3.568 0 8 C 0 12.432 3.568 16 8 16 C 12.432 16 16 12.432 16 8 C 16 3.568 12.432 0 8 0 z M 8 5 A 3 3 0 0 1 11 8 A 3 3 0 0 1 8 11 A 3 3 0 0 1 5 8 A 3 3 0 0 1 8 5 z"/>
 <rect style="fill:#64cd4a" width="12" height="6" x="2" y="10" rx=".857" ry=".857"/>
 <path style="fill:none;stroke:#ffffff;stroke-width:0.99978042;stroke-linecap:round;stroke-linejoin:round" d="m 5.4961359,14.49299 0,-2.985766 m -1.9922717,0 0.9961359,1.492882 0.9961358,-1.492882 m -1.9922717,2.985766 0,-2.985766"/>
 <path style="fill:none;stroke:#ffffff;stroke-width:1.00047815;stroke-linecap:round" d="M 9.4945513,14.492636 7.5054486,12.626548 m 1.9891027,-1.119654 -1.9891027,1.866089 m 0,1.119653 0,-2.985742"/>
 <path style="fill:none;stroke:#ffffff;stroke-width:0.99979293;stroke-linecap:round;stroke-linejoin:round" d="M 12.497818,11.506859 11.5,14.500212 10.502182,11.506859"/>
</svg>
